X: 25071
T: Maids Of Castlebar, The
R: reel
M: 4/4
K: Dmajor
ABc|dD (3DDD EDB,E|D2FA BAFA|dDcD BDAF|DEFD EDB,D|
FD (3DDD EDB,E|D2FA BAFA|dfec dBAG|FG EG FD D2|
dD (3DDD EDB,E|D2FA BAFA|d2 cA BAFA|DEFD EDB,D|
FD D2 EDB,E|D2FA BAFA|dfec dBAG|FG EG FD D2|
|:a2^ga fd (3ddd|fdad fddf|ge be geef|ge be geeg|
~f3a ~g3e|fgec dcBA|Bcde fdec|dBAG FDD2:|

